plasma/desktoptheme/Materia-Color/icons/akregator.svg

<svg xmlns="http://www.w3.org/2000/svg" width="32" height="32" version="1.1">
 <defs id="materia">
  <style id="current-color-scheme" type="text/css">
   .ColorScheme-Background {color:#181818; } .ColorScheme-ButtonBackground { color:#343434; } .ColorScheme-Highlight { color:#4285f4; } .ColorScheme-Text { color:#dfdfdf; } .ColorScheme-ViewBackground { color:#242424; } .ColorScheme-NegativeText { color:#f44336; } .ColorScheme-PositiveText { color:#4caf50; } .ColorScheme-NeutralText { color:#ff9800; }
  </style>
 </defs>
 <g id="22-22-akregator" transform="translate(32,10)">
  <rect style="opacity:0.001" width="22" height="22" x="0" y="0"/>
  <path style="fill:currentColor" class="ColorScheme-Text" d="m 5.0000005,2.9999997 c -1.108,0 -2,0.8920001 -2,2.0000001 V 17 c 0,1.108 0.892,2 2,2 H 17 c 1.108,0 2,-0.892 2,-2 C 19,3 9,3 5.0000005,2.9999997 Z m 0,2.0000001 c 6.2222215,0 9.4609935,2.2049917 10.8847655,4.9101562 C 17.308536,12.61532 17,15.611111 17,17 H 15 C 15,15.388889 15.191463,12.884678 14.115234,10.839844 13.039005,8.7950078 10.777778,6.9999998 5.0000005,6.9999998 Z m 0,4 c 3.910823,0 6.1296825,1.1321932 7.1582015,2.8632812 C 13.186721,13.594369 12.999999,15.5516 12.999999,17 h -2 c 0,-1.5516 0.04484,-3.094371 -0.560547,-4.113282 C 9.8340715,11.867807 8.5535725,11 5.0000005,11 Z m 2.001953,3.9999992 c 1.104335,0 1.997387,0.896324 1.998046,2.000001 0,1.104994 -0.893711,2 -1.998046,2 -1.106972,0 -2.001953,-0.895006 -2.001953,-2 0,-1.103677 0.894981,-2.000001 2.001953,-2.000001 z"/>
 </g>
 <g id="akregator">
  <rect style="opacity:0.001" width="32" height="32" x="0" y="0"/>
  <path style="fill:currentColor" class="ColorScheme-Text" d="m 7.0000003,3.9999994 c -1.6620001,0 -3.0000002,1.3380002 -3.0000002,3.0000002 V 25.000002 c 0,1.662 1.3380001,2.999999 3.0000002,2.999999 H 25.000001 C 26.662001,28.000001 28,26.662002 28,25.000002 28,3.9999998 13,3.9999998 7.0000003,3.9999994 Z m 0,3.0000002 c 9.3333337,0 14.1914917,3.3074874 16.3271497,7.3652354 2.135654,4.057746 1.672851,8.551432 1.672851,10.634767 H 22 C 22,22.583334 22.287195,18.827018 20.672851,15.759767 19.058508,12.692512 15.666667,9.9999997 7.0000003,9.9999997 Z m 0,6.0000004 c 5.8662347,0 9.1945237,1.698291 10.7373027,4.294922 1.542779,2.596632 1.262696,5.532479 1.262696,7.70508 h -3 c 0,-2.3274 0.06726,-4.641557 -0.840821,-6.169924 C 14.251107,17.301711 12.330358,16 7.0000003,16 Z m 3.0029297,6 c 1.656502,0 2.99608,1.344486 2.997069,3.000001 0,1.657492 -1.340567,3.000001 -2.997069,3.000001 -1.6604582,0 -3.0029297,-1.342509 -3.0029297,-3.000001 C 7.0000003,20.344486 8.3424718,19 10.00293,19 Z"/>
 </g>
</svg>

<?xml version="1.0" encoding="UTF-8"?>
<svg width="32" height="32" version="1.1" xmlns="http://www.w3.org/2000/svg">
 <defs id="materia">
  <style id="current-color-scheme" type="text/css">.ColorScheme-Background {color:#181818; } .ColorScheme-ButtonBackground { color:#343434; } .ColorScheme-Highlight { color:#4285f4; } .ColorScheme-Text { color:#dfdfdf; } .ColorScheme-ViewBackground { color:#242424; } .ColorScheme-NegativeText { color:#f44336; } .ColorScheme-PositiveText { color:#4caf50; } .ColorScheme-NeutralText { color:#ff9800; }</style>
 </defs>
 <g id="22-22-akregator" transform="translate(32,10)">
  <rect width="22" height="22" opacity=".001"/>
  <path class="ColorScheme-Text" d="m5 3c-1.108 0-2 0.892-2 2v12c0 1.108 0.892 2 2 2h12c1.108 0 2-0.892 2-2 0-14-10-14-14-14zm0 2c6.2222 0 9.461 2.205 10.885 4.9102 1.4238 2.7052 1.1152 5.701 1.1152 7.0898h-2c0-1.6111 0.19146-4.1153-0.88477-6.1602-1.0762-2.0448-3.3375-3.8398-9.1152-3.8398zm0 4c3.9108 0 6.1297 1.1322 7.1582 2.8633s0.8418 3.6883 0.8418 5.1367h-2c0-1.5516 0.04484-3.0944-0.56055-4.1133-0.60538-1.0189-1.8859-1.8867-5.4395-1.8867zm2.002 4c1.1043 0 1.9974 0.89632 1.998 2 0 1.105-0.89371 2-1.998 2-1.107 0-2.002-0.89501-2.002-2 0-1.1037 0.89498-2 2.002-2z" fill="currentColor"/>
 </g>
 <g id="akregator">
  <rect width="32" height="32" opacity=".001"/>
  <path class="ColorScheme-Text" d="m7 4c-1.662 0-3 1.338-3 3v18c0 1.662 1.338 3 3 3h18c1.662 0 3-1.338 3-3 0-21-15-21-21-21zm0 3c9.3333 0 14.191 3.3075 16.327 7.3652 2.1357 4.0577 1.6729 8.5514 1.6729 10.635h-3c0-2.4167 0.2872-6.173-1.3271-9.2402-1.6143-3.0673-5.0062-5.7598-13.673-5.7598zm0 6c5.8662 0 9.1945 1.6983 10.737 4.2949 1.5428 2.5966 1.2627 5.5325 1.2627 7.7051h-3c0-2.3274 0.06726-4.6416-0.84082-6.1699-0.90807-1.5284-2.8288-2.8301-8.1592-2.8301zm3.0029 6c1.6565 0 2.9961 1.3445 2.9971 3 0 1.6575-1.3406 3-2.9971 3-1.6605 0-3.0029-1.3425-3.0029-3 0-1.6555 1.3425-3 3.0029-3z" fill="currentColor"/>
 </g>
</svg>
